X: 102141
T: Joey's Delight
C: Joe Liddy
Z: BB
S: "The Leitrim Fiddler" (Dublin 1981)
L: 1/8
M: 4/4
R: reel
Q: 1/4 = 180
K: Edor
BA | GBEF GEBE | GEBd AGFD | GBEF GBec | dBAF E2 EF |
GBEF GEBE | dEBd AF D2 | EFGA Bd (3edB | AGFD E2 :|
FA | Beef g2 ag | fdad fded | Beef g2 bg | afdf e2 ed |
(3Bcd ef g2 ag | fdBc defa | gefd efdB | AGFD E2 ||
BA | Bdef g2 ag | fd (3edc dfaf | gfed BA (3Bcd | egfd e2 ef | 
g2 fd edBA | G2 FG ED B,2 | EFGA Bd (3edB | AGFD E4 ||
